static/img/in-field/inputs-success.svg

<svg width="468" height="94" viewBox="0 0 468 94" fill="none" xmlns="http://www.w3.org/2000/svg">
<rect x="1" y="1" width="466" height="54" rx="3" fill="white"/>
<path d="M22.9717 37H21.1348V22.9062H16.1934V21.2949H27.8916V22.9062H22.9717V37ZM34.7803 25.0117C35.7829 25.0117 36.6423 25.2337 37.3584 25.6777C38.0745 26.1217 38.6224 26.7448 39.002 27.5469C39.3815 28.3418 39.5713 29.2728 39.5713 30.3398V31.4463H31.4395C31.4609 32.8285 31.8047 33.8812 32.4707 34.6045C33.1367 35.3278 34.0749 35.6895 35.2852 35.6895C36.0299 35.6895 36.6888 35.6214 37.2617 35.4854C37.8346 35.3493 38.429 35.1488 39.0449 34.8838V36.4521C38.4505 36.7171 37.8597 36.9105 37.2725 37.0322C36.6924 37.154 36.0049 37.2148 35.21 37.2148C34.0785 37.2148 33.0902 36.9857 32.2451 36.5273C31.4072 36.0618 30.7555 35.3815 30.29 34.4863C29.8245 33.5911 29.5918 32.4954 29.5918 31.1992C29.5918 29.9316 29.8031 28.8359 30.2256 27.9121C30.6553 26.9811 31.2568 26.265 32.0303 25.7637C32.8109 25.2624 33.7275 25.0117 34.7803 25.0117ZM34.7588 26.4727C33.8063 26.4727 33.0472 26.7842 32.4814 27.4072C31.9157 28.0303 31.5791 28.9004 31.4717 30.0176H37.7021C37.695 29.3158 37.584 28.6999 37.3691 28.1699C37.1615 27.6328 36.8428 27.2174 36.4131 26.9238C35.9834 26.623 35.432 26.4727 34.7588 26.4727ZM45.6543 30.9736L41.583 25.2266H43.624L46.7285 29.7598L49.8223 25.2266H51.8418L47.7705 30.9736L52.0674 37H50.0264L46.7285 32.1982L43.4092 37H41.3896L45.6543 30.9736ZM58.4189 35.7539C58.7126 35.7539 59.0133 35.7288 59.3213 35.6787C59.6292 35.6286 59.8799 35.5677 60.0732 35.4961V36.8818C59.8656 36.9749 59.5755 37.0537 59.2031 37.1182C58.8379 37.1826 58.4798 37.2148 58.1289 37.2148C57.5059 37.2148 56.9401 37.1074 56.4316 36.8926C55.9232 36.6706 55.515 36.2982 55.207 35.7754C54.9062 35.2526 54.7559 34.5293 54.7559 33.6055V26.623H53.0801V25.7529L54.7666 25.0547L55.4756 22.498H56.5498V25.2266H59.998V26.623H56.5498V33.5518C56.5498 34.2894 56.7181 34.8408 57.0547 35.2061C57.3984 35.5713 57.8532 35.7539 58.4189 35.7539ZM68.9414 37V21.2949H70.7676V37H68.9414ZM80.6426 25.0117C82.0391 25.0117 83.0954 25.3555 83.8115 26.043C84.5277 26.7233 84.8857 27.819 84.8857 29.3301V37H83.124V29.4482C83.124 28.4671 82.8984 27.7331 82.4473 27.2461C82.0033 26.7591 81.3193 26.5156 80.3955 26.5156C79.0921 26.5156 78.1755 26.8844 77.6455 27.6221C77.1156 28.3597 76.8506 29.4303 76.8506 30.834V37H75.0674V25.2266H76.5068L76.7754 26.9238H76.8721C77.1227 26.5085 77.4414 26.1611 77.8281 25.8818C78.2148 25.5954 78.6481 25.3805 79.1279 25.2373C79.6077 25.0869 80.1126 25.0117 80.6426 25.0117ZM94.3418 25.0117C95.8099 25.0117 96.9808 25.5166 97.8545 26.5264C98.7282 27.5361 99.165 29.0544 99.165 31.0811C99.165 32.4202 98.9645 33.5446 98.5635 34.4541C98.1624 35.3636 97.5967 36.0511 96.8662 36.5166C96.1429 36.9821 95.2871 37.2148 94.2988 37.2148C93.6758 37.2148 93.1279 37.1325 92.6553 36.9678C92.1826 36.8031 91.778 36.5811 91.4414 36.3018C91.1048 36.0225 90.8255 35.7181 90.6035 35.3887H90.4746C90.4961 35.668 90.5212 36.0046 90.5498 36.3984C90.5856 36.7923 90.6035 37.1361 90.6035 37.4297V42.2637H88.8096V25.2266H90.2812L90.5176 26.9668H90.6035C90.8327 26.6087 91.112 26.2829 91.4414 25.9893C91.7708 25.6885 92.1719 25.4521 92.6445 25.2803C93.1243 25.1012 93.6901 25.0117 94.3418 25.0117ZM94.0303 26.5156C93.2139 26.5156 92.555 26.6732 92.0537 26.9883C91.5596 27.3034 91.1979 27.776 90.9688 28.4062C90.7396 29.0293 90.6178 29.8135 90.6035 30.7588V31.1025C90.6035 32.098 90.7109 32.9395 90.9258 33.627C91.1478 34.3145 91.5094 34.8372 92.0107 35.1953C92.5192 35.5534 93.1995 35.7324 94.0518 35.7324C94.7822 35.7324 95.391 35.5355 95.8779 35.1416C96.3649 34.7477 96.7266 34.1999 96.9629 33.498C97.2064 32.7891 97.3281 31.9762 97.3281 31.0596C97.3281 29.6702 97.056 28.5674 96.5117 27.751C95.9746 26.9274 95.1475 26.5156 94.0303 26.5156ZM112.252 25.2266V37H110.791L110.533 35.3457H110.437C110.193 35.7539 109.878 36.0977 109.491 36.377C109.104 36.6562 108.668 36.8639 108.181 37C107.701 37.1432 107.189 37.2148 106.645 37.2148C105.714 37.2148 104.933 37.0645 104.303 36.7637C103.673 36.4629 103.196 35.9974 102.874 35.3672C102.559 34.737 102.401 33.9277 102.401 32.9395V25.2266H104.206V32.8105C104.206 33.7917 104.428 34.5257 104.872 35.0127C105.316 35.4925 105.993 35.7324 106.902 35.7324C107.776 35.7324 108.471 35.5677 108.986 35.2383C109.509 34.9089 109.885 34.4255 110.114 33.7881C110.343 33.1436 110.458 32.3558 110.458 31.4248V25.2266H112.252ZM120.075 35.7539C120.369 35.7539 120.67 35.7288 120.978 35.6787C121.285 35.6286 121.536 35.5677 121.729 35.4961V36.8818C121.522 36.9749 121.232 37.0537 120.859 37.1182C120.494 37.1826 120.136 37.2148 119.785 37.2148C119.162 37.2148 118.596 37.1074 118.088 36.8926C117.579 36.6706 117.171 36.2982 116.863 35.7754C116.562 35.2526 116.412 34.5293 116.412 33.6055V26.623H114.736V25.7529L116.423 25.0547L117.132 22.498H118.206V25.2266H121.654V26.623H118.206V33.5518C118.206 34.2894 118.374 34.8408 118.711 35.2061C119.055 35.5713 119.509 35.7539 120.075 35.7539Z" fill="#252A2E"/>
<rect x="1" y="1" width="466" height="54" rx="3" stroke="#353A40" stroke-width="2"/>
<g clip-path="url(#clip0_7345_83009)">
<path d="M3.84375 79.4999C3.84375 77.8452 4.16966 76.2068 4.80287 74.6781C5.43608 73.1494 6.36419 71.7604 7.5342 70.5904C8.70422 69.4203 10.0932 68.4922 11.6219 67.859C13.1506 67.2258 14.7891 66.8999 16.4437 66.8999C18.0984 66.8999 19.7369 67.2258 21.2656 67.859C22.7943 68.4922 24.1833 69.4203 25.3533 70.5904C26.5233 71.7604 27.4514 73.1494 28.0846 74.6781C28.7178 76.2068 29.0437 77.8452 29.0437 79.4999C29.0437 81.1546 28.7178 82.793 28.0846 84.3217C27.4514 85.8504 26.5233 87.2394 25.3533 88.4094C24.1833 89.5795 22.7943 90.5076 21.2656 91.1408C19.7369 91.774 18.0984 92.0999 16.4437 92.0999C14.7891 92.0999 13.1506 91.774 11.6219 91.1408C10.0932 90.5076 8.70422 89.5795 7.5342 88.4094C6.36419 87.2394 5.43608 85.8504 4.80287 84.3217C4.16966 82.793 3.84375 81.1546 3.84375 79.4999Z" fill="#00CC2A"/>
<path d="M16.4438 68.0249C22.8001 68.0249 27.9188 73.1437 27.9188 79.4999C27.9188 85.8562 22.8001 90.9749 16.4438 90.9749C10.0876 90.9749 4.9126 85.8562 4.9126 79.4999C4.9126 73.1437 10.0876 68.0249 16.4438 68.0249ZM16.4438 66.0562C8.9626 66.0562 2.94385 72.0749 2.94385 79.4999C2.94385 86.9249 8.9626 92.9437 16.3876 92.9437C23.8126 92.9437 29.8876 86.9249 29.8876 79.4999C29.8876 72.0749 23.8688 66.0562 16.4438 66.0562Z" fill="#227B30"/>
<path d="M22.2376 76.9688L20.8876 75.5625L14.7001 81.6938L12.2251 79.2188L10.8188 80.5688L14.7001 84.45L16.1063 83.1L22.2376 76.9688Z" fill="white"/>
</g>
<path d="M48.1289 72.2949H50.0947L44.4336 88H42.6289L37 72.2949H38.9336L42.543 82.457C42.9583 83.6243 43.2878 84.7594 43.5312 85.8623C43.7891 84.7021 44.1257 83.5456 44.541 82.3926L48.1289 72.2949ZM59.4863 88L59.1318 86.3242H59.0459C58.4587 87.0618 57.8714 87.5632 57.2842 87.8281C56.7041 88.0859 55.9772 88.2148 55.1035 88.2148C53.9362 88.2148 53.0195 87.9141 52.3535 87.3125C51.6947 86.7109 51.3652 85.8551 51.3652 84.7451C51.3652 82.3675 53.2666 81.1214 57.0693 81.0068L59.0674 80.9424V80.2119C59.0674 79.2881 58.8669 78.6077 58.4658 78.1709C58.0719 77.7269 57.4382 77.5049 56.5645 77.5049C55.5833 77.5049 54.4733 77.8057 53.2344 78.4072L52.6865 77.043C53.2666 76.7279 53.9004 76.4808 54.5879 76.3018C55.2826 76.1227 55.9772 76.0332 56.6719 76.0332C58.0755 76.0332 59.1139 76.3447 59.7871 76.9678C60.4674 77.5908 60.8076 78.5898 60.8076 79.9648V88H59.4863ZM55.458 86.7432C56.568 86.7432 57.4382 86.4388 58.0684 85.8301C58.7057 85.2214 59.0244 84.3691 59.0244 83.2734V82.21L57.2412 82.2852C55.8232 82.3353 54.7992 82.5573 54.1689 82.9512C53.5459 83.3379 53.2344 83.943 53.2344 84.7666C53.2344 85.4111 53.4277 85.9017 53.8145 86.2383C54.2083 86.5749 54.7562 86.7432 55.458 86.7432ZM66.5254 88H64.7422V71.2852H66.5254V88ZM72.3398 88H70.5566V76.2266H72.3398V88ZM70.4062 73.0361C70.4062 72.6279 70.5065 72.3307 70.707 72.1445C70.9076 71.9512 71.1582 71.8545 71.459 71.8545C71.7454 71.8545 71.9925 71.9512 72.2002 72.1445C72.4079 72.3379 72.5117 72.6351 72.5117 73.0361C72.5117 73.4372 72.4079 73.738 72.2002 73.9385C71.9925 74.1318 71.7454 74.2285 71.459 74.2285C71.1582 74.2285 70.9076 74.1318 70.707 73.9385C70.5065 73.738 70.4062 73.4372 70.4062 73.0361ZM84.3848 86.4209H84.2881C83.4645 87.6169 82.2327 88.2148 80.5928 88.2148C79.0531 88.2148 77.8535 87.6885 76.9941 86.6357C76.1419 85.583 75.7158 84.0863 75.7158 82.1455C75.7158 80.2048 76.1455 78.6973 77.0049 77.623C77.8643 76.5488 79.0602 76.0117 80.5928 76.0117C82.1898 76.0117 83.4144 76.5918 84.2666 77.752H84.4062L84.3311 76.9033L84.2881 76.0762V71.2852H86.0713V88H84.6211L84.3848 86.4209ZM80.8184 86.7217C82.0358 86.7217 82.9167 86.3923 83.4609 85.7334C84.0124 85.0674 84.2881 83.9967 84.2881 82.5215V82.1455C84.2881 80.4769 84.0088 79.2881 83.4502 78.5791C82.8988 77.863 82.0143 77.5049 80.7969 77.5049C79.7513 77.5049 78.9492 77.9131 78.3906 78.7295C77.8392 79.5387 77.5635 80.6846 77.5635 82.167C77.5635 83.6709 77.8392 84.806 78.3906 85.5723C78.9421 86.3385 79.7513 86.7217 80.8184 86.7217ZM98.1729 88H96.3467V72.2949H105.102V73.917H98.1729V79.6641H104.683V81.2861H98.1729V88ZM112.667 88.2148C110.927 88.2148 109.552 87.6849 108.542 86.625C107.539 85.5651 107.038 84.0934 107.038 82.21C107.038 80.3122 107.504 78.8047 108.435 77.6875C109.373 76.5703 110.63 76.0117 112.205 76.0117C113.68 76.0117 114.848 76.4987 115.707 77.4727C116.566 78.4395 116.996 79.7178 116.996 81.3076V82.4355H108.886C108.922 83.8177 109.269 84.8669 109.928 85.583C110.594 86.2992 111.528 86.6572 112.731 86.6572C113.999 86.6572 115.252 86.3923 116.491 85.8623V87.4521C115.861 87.7243 115.263 87.9176 114.697 88.0322C114.139 88.154 113.462 88.2148 112.667 88.2148ZM112.184 77.5049C111.238 77.5049 110.483 77.8128 109.917 78.4287C109.358 79.0446 109.029 79.8968 108.929 80.9854H115.084C115.084 79.861 114.833 79.0016 114.332 78.4072C113.831 77.8057 113.115 77.5049 112.184 77.5049ZM125.271 88.2148C123.53 88.2148 122.155 87.6849 121.146 86.625C120.143 85.5651 119.642 84.0934 119.642 82.21C119.642 80.3122 120.107 78.8047 121.038 77.6875C121.976 76.5703 123.233 76.0117 124.809 76.0117C126.284 76.0117 127.451 76.4987 128.311 77.4727C129.17 78.4395 129.6 79.7178 129.6 81.3076V82.4355H121.489C121.525 83.8177 121.872 84.8669 122.531 85.583C123.197 86.2992 124.132 86.6572 125.335 86.6572C126.603 86.6572 127.856 86.3923 129.095 85.8623V87.4521C128.465 87.7243 127.867 87.9176 127.301 88.0322C126.742 88.154 126.065 88.2148 125.271 88.2148ZM124.787 77.5049C123.842 77.5049 123.086 77.8128 122.521 78.4287C121.962 79.0446 121.632 79.8968 121.532 80.9854H127.688C127.688 79.861 127.437 79.0016 126.936 78.4072C126.434 77.8057 125.718 77.5049 124.787 77.5049ZM140.914 86.4209H140.817C139.994 87.6169 138.762 88.2148 137.122 88.2148C135.582 88.2148 134.383 87.6885 133.523 86.6357C132.671 85.583 132.245 84.0863 132.245 82.1455C132.245 80.2048 132.675 78.6973 133.534 77.623C134.394 76.5488 135.59 76.0117 137.122 76.0117C138.719 76.0117 139.944 76.5918 140.796 77.752H140.936L140.86 76.9033L140.817 76.0762V71.2852H142.601V88H141.15L140.914 86.4209ZM137.348 86.7217C138.565 86.7217 139.446 86.3923 139.99 85.7334C140.542 85.0674 140.817 83.9967 140.817 82.5215V82.1455C140.817 80.4769 140.538 79.2881 139.979 78.5791C139.428 77.863 138.544 77.5049 137.326 77.5049C136.281 77.5049 135.479 77.9131 134.92 78.7295C134.368 79.5387 134.093 80.6846 134.093 82.167C134.093 83.6709 134.368 84.806 134.92 85.5723C135.471 86.3385 136.281 86.7217 137.348 86.7217ZM152.121 76.0332C153.668 76.0332 154.868 76.5632 155.72 77.623C156.579 78.6758 157.009 80.1689 157.009 82.1025C157.009 84.0361 156.576 85.54 155.709 86.6143C154.85 87.6813 153.654 88.2148 152.121 88.2148C151.355 88.2148 150.653 88.0752 150.016 87.7959C149.385 87.5094 148.855 87.0726 148.426 86.4854H148.297L147.921 88H146.643V71.2852H148.426V75.3457C148.426 76.2552 148.397 77.0716 148.34 77.7949H148.426C149.257 76.6204 150.488 76.0332 152.121 76.0332ZM151.863 77.5264C150.646 77.5264 149.769 77.8773 149.231 78.5791C148.694 79.2738 148.426 80.4482 148.426 82.1025C148.426 83.7568 148.701 84.9421 149.253 85.6582C149.804 86.3672 150.689 86.7217 151.906 86.7217C153.002 86.7217 153.818 86.3242 154.355 85.5293C154.893 84.7272 155.161 83.5778 155.161 82.0811C155.161 80.5485 154.893 79.4062 154.355 78.6543C153.818 77.9023 152.988 77.5264 151.863 77.5264ZM167.625 88L167.271 86.3242H167.185C166.597 87.0618 166.01 87.5632 165.423 87.8281C164.843 88.0859 164.116 88.2148 163.242 88.2148C162.075 88.2148 161.158 87.9141 160.492 87.3125C159.833 86.7109 159.504 85.8551 159.504 84.7451C159.504 82.3675 161.405 81.1214 165.208 81.0068L167.206 80.9424V80.2119C167.206 79.2881 167.006 78.6077 166.604 78.1709C166.211 77.7269 165.577 77.5049 164.703 77.5049C163.722 77.5049 162.612 77.8057 161.373 78.4072L160.825 77.043C161.405 76.7279 162.039 76.4808 162.727 76.3018C163.421 76.1227 164.116 76.0332 164.811 76.0332C166.214 76.0332 167.253 76.3447 167.926 76.9678C168.606 77.5908 168.946 78.5898 168.946 79.9648V88H167.625ZM163.597 86.7432C164.707 86.7432 165.577 86.4388 166.207 85.8301C166.844 85.2214 167.163 84.3691 167.163 83.2734V82.21L165.38 82.2852C163.962 82.3353 162.938 82.5573 162.308 82.9512C161.685 83.3379 161.373 83.943 161.373 84.7666C161.373 85.4111 161.566 85.9017 161.953 86.2383C162.347 86.5749 162.895 86.7432 163.597 86.7432ZM177.586 88.2148C175.882 88.2148 174.56 87.6921 173.622 86.6465C172.691 85.5938 172.226 84.1077 172.226 82.1885C172.226 80.2191 172.698 78.6973 173.644 77.623C174.596 76.5488 175.95 76.0117 177.704 76.0117C178.27 76.0117 178.836 76.0726 179.401 76.1943C179.967 76.3161 180.411 76.4593 180.733 76.624L180.186 78.1387C179.792 77.9811 179.362 77.8522 178.896 77.752C178.431 77.6445 178.019 77.5908 177.661 77.5908C175.269 77.5908 174.073 79.1162 174.073 82.167C174.073 83.6136 174.363 84.7236 174.943 85.4971C175.531 86.2705 176.397 86.6572 177.543 86.6572C178.524 86.6572 179.53 86.446 180.562 86.0234V87.6025C179.774 88.0107 178.782 88.2148 177.586 88.2148ZM185.377 81.9736C185.685 81.5368 186.154 80.9639 186.784 80.2549L190.587 76.2266H192.703L187.934 81.2432L193.036 88H190.877L186.72 82.4355L185.377 83.5957V88H183.615V71.2852H185.377V80.1475C185.377 80.5413 185.348 81.1501 185.291 81.9736H185.377Z" fill="black"/>
<defs>
<clipPath id="clip0_7345_83009">
<rect width="27" height="27" fill="white" transform="translate(3 66)"/>
</clipPath>
</defs>
</svg>

<svg width="468" height="94" fill="none" xmlns="http://www.w3.org/2000/svg"><rect x="1" y="1" width="466" height="54" rx="3" fill="#fff"/><path d="M22.972 37h-1.837V22.906h-4.942v-1.611h11.699v1.611h-4.92V37zM34.78 25.012c1.003 0 1.862.222 2.578.666.717.444 1.264 1.067 1.644 1.869.38.795.57 1.726.57 2.793v1.106h-8.133c.022 1.382.366 2.435 1.032 3.159.666.723 1.604 1.085 2.814 1.085.745 0 1.404-.069 1.977-.205a10.9 10.9 0 001.783-.601v1.568a8.676 8.676 0 01-1.773.58c-.58.122-1.267.183-2.062.183-1.132 0-2.12-.23-2.965-.688-.838-.465-1.49-1.145-1.955-2.04-.465-.896-.698-1.992-.698-3.288 0-1.267.211-2.363.634-3.287.43-.93 1.03-1.647 1.804-2.148.78-.502 1.697-.752 2.75-.752zm-.021 1.46c-.953 0-1.712.312-2.278.935-.565.623-.902 1.493-1.01 2.61h6.231c-.007-.701-.118-1.317-.333-1.847-.208-.537-.526-.953-.956-1.246-.43-.301-.981-.451-1.654-.451zm10.895 4.502l-4.071-5.747h2.041l3.104 4.533 3.094-4.533h2.02l-4.072 5.747L52.067 37h-2.04l-3.299-4.802L43.41 37h-2.02l4.265-6.026zm12.765 4.78c.294 0 .594-.025.902-.075.308-.05.559-.111.752-.183v1.386c-.207.093-.498.172-.87.236a6.179 6.179 0 01-1.074.097 4.32 4.32 0 01-1.697-.322c-.509-.222-.917-.595-1.225-1.118-.3-.522-.451-1.246-.451-2.17v-6.982H53.08v-.87l1.687-.698.709-2.557h1.074v2.729h3.448v1.396H56.55v6.929c0 .737.168 1.289.505 1.654.343.365.798.548 1.364.548zM68.94 37V21.295h1.827V37H68.94zm11.702-11.988c1.396 0 2.452.343 3.168 1.031.717.68 1.075 1.776 1.075 3.287V37h-1.762v-7.552c0-.98-.226-1.715-.677-2.202-.444-.487-1.128-.73-2.052-.73-1.303 0-2.22.368-2.75 1.106-.53.738-.794 1.808-.794 3.212V37h-1.784V25.227h1.44l.268 1.697h.097c.25-.415.57-.763.956-1.042.387-.287.82-.502 1.3-.645.48-.15.985-.225 1.515-.225zm13.699 0c1.468 0 2.639.505 3.513 1.514.873 1.01 1.31 2.528 1.31 4.555 0 1.34-.2 2.464-.602 3.373-.4.91-.966 1.597-1.697 2.063-.723.465-1.579.698-2.567.698-.623 0-1.171-.083-1.644-.247a3.878 3.878 0 01-1.214-.666 4.347 4.347 0 01-.838-.913h-.128l.075 1.01c.036.393.053.737.053 1.03v4.835H88.81V25.227h1.471l.237 1.74h.085c.23-.358.509-.684.838-.978.33-.3.73-.537 1.203-.709.48-.179 1.046-.268 1.698-.268zm-.312 1.504c-.816 0-1.475.157-1.976.472-.494.315-.856.788-1.085 1.418-.23.623-.351 1.408-.365 2.353v.343c0 .996.107 1.838.322 2.525.222.688.583 1.21 1.085 1.568.508.358 1.189.537 2.04.537.731 0 1.34-.197 1.827-.59.487-.394.849-.942 1.085-1.644.243-.709.365-1.522.365-2.438 0-1.39-.272-2.493-.816-3.309-.537-.824-1.365-1.235-2.482-1.235zm18.222-1.29V37h-1.461l-.258-1.654h-.096a3.427 3.427 0 01-.946 1.031c-.387.28-.823.487-1.31.623-.48.143-.992.215-1.536.215-.931 0-1.712-.15-2.342-.451a3.036 3.036 0 01-1.429-1.397c-.315-.63-.473-1.44-.473-2.427v-7.713h1.805v7.583c0 .982.222 1.716.666 2.203.444.48 1.121.72 2.03.72.874 0 1.569-.165 2.084-.495.523-.33.899-.813 1.128-1.45.229-.644.344-1.432.344-2.363v-6.198h1.794zm7.823 10.528c.294 0 .595-.025.903-.075.307-.05.558-.111.751-.183v1.386c-.207.093-.497.172-.87.236a6.174 6.174 0 01-1.074.097 4.317 4.317 0 01-1.697-.322c-.509-.222-.917-.595-1.225-1.118-.301-.522-.451-1.246-.451-2.17v-6.982h-1.676v-.87l1.687-.698.709-2.557h1.074v2.729h3.448v1.396h-3.448v6.929c0 .737.168 1.289.505 1.654.344.365.798.548 1.364.548z" fill="#252A2E"/><rect x="1" y="1" width="466" height="54" rx="3" stroke="#353A40" stroke-width="2"/><g clip-path="url(#prefix__clip0_7345_83009)"><path d="M3.844 79.5a12.6 12.6 0 1125.2 0 12.6 12.6 0 01-25.2 0z" fill="#00CC2A"/><path d="M16.444 68.025A11.451 11.451 0 0127.919 79.5a11.451 11.451 0 01-11.475 11.475c-6.356 0-11.531-5.119-11.531-11.475s5.175-11.475 11.53-11.475zm0-1.969c-7.481 0-13.5 6.019-13.5 13.444 0 7.425 6.019 13.444 13.444 13.444 7.425 0 13.5-6.02 13.5-13.444 0-7.425-6.02-13.444-13.444-13.444z" fill="#227B30"/><path d="M22.238 76.969l-1.35-1.406-6.188 6.13-2.475-2.474-1.406 1.35L14.7 84.45l1.406-1.35 6.132-6.131z" fill="#fff"/></g><path d="M48.129 72.295h1.966L44.434 88h-1.805L37 72.295h1.934l3.609 10.162c.415 1.167.745 2.302.988 3.405a28.45 28.45 0 011.01-3.47l3.588-10.097zM59.486 88l-.354-1.676h-.086c-.587.738-1.175 1.24-1.762 1.504-.58.258-1.307.387-2.18.387-1.168 0-2.084-.3-2.75-.903-.66-.601-.989-1.457-.989-2.567 0-2.377 1.902-3.624 5.704-3.738l1.998-.065v-.73c0-.924-.2-1.604-.601-2.041-.394-.444-1.028-.666-1.901-.666-.982 0-2.092.3-3.33.902l-.548-1.364a8.4 8.4 0 011.9-.741 8.318 8.318 0 012.085-.269c1.404 0 2.442.312 3.115.935.68.623 1.02 1.622 1.02 2.997V88h-1.32zm-4.028-1.257c1.11 0 1.98-.304 2.61-.913.638-.609.956-1.46.956-2.557V82.21l-1.783.075c-1.418.05-2.442.272-3.072.666-.623.387-.935.992-.935 1.816 0 .644.194 1.135.58 1.471.394.337.942.505 1.644.505zM66.525 88h-1.783V71.285h1.783V88zm5.815 0h-1.783V76.227h1.783V88zm-1.934-14.964c0-.408.1-.705.301-.892.2-.193.451-.29.752-.29.286 0 .534.097.741.29.208.194.312.491.312.892s-.104.702-.312.903c-.207.193-.455.29-.741.29-.3 0-.551-.097-.752-.29-.2-.201-.3-.502-.3-.903zm13.979 13.385h-.097c-.823 1.196-2.055 1.794-3.695 1.794-1.54 0-2.74-.526-3.599-1.58-.852-1.052-1.278-2.549-1.278-4.49 0-1.94.43-3.448 1.289-4.522.86-1.074 2.055-1.611 3.588-1.611 1.597 0 2.821.58 3.674 1.74h.14l-.076-.849-.043-.827v-4.79h1.783V88h-1.45l-.236-1.58zm-3.567.3c1.218 0 2.099-.329 2.643-.988.551-.666.827-1.736.827-3.212v-.376c0-1.668-.28-2.857-.838-3.566-.551-.716-1.436-1.074-2.653-1.074-1.046 0-1.848.408-2.406 1.225-.552.809-.828 1.955-.828 3.437 0 1.504.276 2.639.828 3.405.551.766 1.36 1.15 2.427 1.15zM98.173 88h-1.826V72.295h8.755v1.622h-6.93v5.747h6.511v1.622h-6.51V88zm14.494.215c-1.74 0-3.115-.53-4.125-1.59-1.003-1.06-1.504-2.532-1.504-4.415 0-1.898.466-3.405 1.397-4.522.938-1.118 2.195-1.676 3.77-1.676 1.475 0 2.643.487 3.502 1.46.859.968 1.289 2.246 1.289 3.836v1.127h-8.11c.036 1.383.383 2.432 1.042 3.148.666.716 1.6 1.074 2.803 1.074 1.268 0 2.521-.265 3.76-.795v1.59a9.104 9.104 0 01-1.794.58c-.558.122-1.235.183-2.03.183zm-.483-10.71c-.946 0-1.701.308-2.267.924-.559.616-.888 1.468-.988 2.556h6.155c0-1.124-.251-1.983-.752-2.578-.501-.601-1.217-.902-2.148-.902zm13.087 10.71c-1.741 0-3.116-.53-4.125-1.59-1.003-1.06-1.504-2.532-1.504-4.415 0-1.898.465-3.405 1.396-4.522.938-1.118 2.195-1.676 3.771-1.676 1.475 0 2.642.487 3.502 1.46.859.968 1.289 2.246 1.289 3.836v1.127h-8.111c.036 1.383.383 2.432 1.042 3.148.666.716 1.601 1.074 2.804 1.074 1.268 0 2.521-.265 3.76-.795v1.59a9.104 9.104 0 01-1.794.58c-.559.122-1.236.183-2.03.183zm-.484-10.71c-.945 0-1.701.308-2.266.924-.559.616-.889 1.468-.989 2.556h6.156c0-1.124-.251-1.983-.752-2.578-.502-.601-1.218-.902-2.149-.902zm16.127 8.916h-.097c-.823 1.196-2.055 1.794-3.695 1.794-1.54 0-2.739-.526-3.599-1.58-.852-1.052-1.278-2.549-1.278-4.49 0-1.94.43-3.448 1.289-4.522.86-1.074 2.056-1.611 3.588-1.611 1.597 0 2.822.58 3.674 1.74h.14l-.076-.849-.043-.827v-4.79h1.784V88h-1.451l-.236-1.58zm-3.566.3c1.217 0 2.098-.329 2.642-.988.552-.666.827-1.736.827-3.212v-.376c0-1.668-.279-2.857-.838-3.566-.551-.716-1.435-1.074-2.653-1.074-1.045 0-1.847.408-2.406 1.225-.552.809-.827 1.955-.827 3.437 0 1.504.275 2.639.827 3.405.551.766 1.361 1.15 2.428 1.15zm14.773-10.688c1.547 0 2.747.53 3.599 1.59.859 1.053 1.289 2.546 1.289 4.48 0 1.933-.433 3.437-1.3 4.511-.859 1.067-2.055 1.6-3.588 1.6-.766 0-1.468-.139-2.105-.418a3.992 3.992 0 01-1.59-1.31h-.129L147.921 88h-1.278V71.285h1.783v4.06c0 .91-.029 1.727-.086 2.45h.086c.831-1.175 2.062-1.762 3.695-1.762zm-.258 1.493c-1.217 0-2.094.351-2.632 1.053-.537.695-.805 1.87-.805 3.524s.275 2.84.827 3.555c.551.71 1.436 1.064 2.653 1.064 1.096 0 1.912-.398 2.449-1.193.538-.802.806-1.951.806-3.448 0-1.532-.268-2.675-.806-3.427-.537-.752-1.367-1.128-2.492-1.128zM167.625 88l-.354-1.676h-.086c-.588.738-1.175 1.24-1.762 1.504-.58.258-1.307.387-2.181.387-1.167 0-2.084-.3-2.75-.903-.659-.601-.988-1.457-.988-2.567 0-2.377 1.901-3.624 5.704-3.738l1.998-.065v-.73c0-.924-.2-1.604-.602-2.041-.393-.444-1.027-.666-1.901-.666-.981 0-2.091.3-3.33.902l-.548-1.364a8.394 8.394 0 011.902-.741 8.312 8.312 0 012.084-.269c1.403 0 2.442.312 3.115.935.68.623 1.02 1.622 1.02 2.997V88h-1.321zm-4.028-1.257c1.11 0 1.98-.304 2.61-.913.637-.609.956-1.46.956-2.557V82.21l-1.783.075c-1.418.05-2.442.272-3.072.666-.623.387-.935.992-.935 1.816 0 .644.193 1.135.58 1.471.394.337.942.505 1.644.505zm13.989 1.472c-1.704 0-3.026-.523-3.964-1.569-.931-1.052-1.396-2.538-1.396-4.457 0-1.97.472-3.492 1.418-4.566.952-1.074 2.306-1.611 4.06-1.611.566 0 1.132.06 1.697.182.566.122 1.01.265 1.332.43l-.547 1.515a7.998 7.998 0 00-1.29-.387 5.564 5.564 0 00-1.235-.161c-2.392 0-3.588 1.525-3.588 4.576 0 1.447.29 2.557.87 3.33.588.773 1.454 1.16 2.6 1.16.981 0 1.987-.211 3.019-.634v1.58c-.788.408-1.78.612-2.976.612zm7.791-6.241c.308-.437.777-1.01 1.407-1.72l3.803-4.027h2.116l-4.769 5.016L193.036 88h-2.159l-4.157-5.564-1.343 1.16V88h-1.762V71.285h1.762v8.862c0 .394-.029 1.003-.086 1.827h.086z" fill="#000"/><defs><clipPath id="prefix__clip0_7345_83009"><path fill="#fff" transform="translate(3 66)" d="M0 0h27v27H0z"/></clipPath></defs></svg>
